ui/StatusQ/src/assets/img/icons/contact_verified.svg

<svg fill="none" height="24" viewBox="0 0 24 24" width="24" xmlns="http://www.w3.org/2000/svg"><g fill="#4360df"><path clip-rule="evenodd" d="m12 13c2.7614 0 5-2.2386 5-5 0-2.76142-2.2386-5-5-5-2.76142 0-5 2.23858-5 5 0 2.7614 2.23858 5 5 5zm0-1.5c1.933 0 3.5-1.567 3.5-3.5s-1.567-3.5-3.5-3.5-3.5 1.567-3.5 3.5 1.567 3.5 3.5 3.5z" fill-rule="evenodd"/><path d="m12.9345 16.7839c-.0348.4176-.4057.7221-.8246.7168-.0367-.0005-.0733-.0007-.1101-.0007-2.54335 0-4.82585 1.1171-6.38356 2.8874-.3025.3438-.83852.3905-1.16232.0666-.26073-.2607-.29211-.6756-.05225-.9556 1.83407-2.1414 4.55765-3.4984 7.59813-3.4984.087 0 .1737.0011.2601.0033.409.0105.7086.3729.6746.7806z"/><path d="m21.6708 13.3354c.1853-.3705.0351-.821-.3354-1.0062-.3705-.1853-.821-.0351-1.0062.3354l-2.2244 4.4488c-.1526.3052-.5595.3713-.8008.1299l-.7737-.7736c-.2929-.2929-.7677-.2929-1.0606 0s-.2929.7677 0 1.0606l1.5094 1.5095c.6033.6033 1.6204.4383 2.002-.3249z"/></g></svg>

<svg width="24" height="24" viewBox="0 0 24 24" fill="none" xmlns="http://www.w3.org/2000/svg">
<path fill-rule="evenodd" clip-rule="evenodd" d="M12 13C14.7614 13 17 10.7614 17 8C17 5.23858 14.7614 3 12 3C9.23858 3 7 5.23858 7 8C7 10.7614 9.23858 13 12 13ZM12 11.5C13.933 11.5 15.5 9.933 15.5 8C15.5 6.067 13.933 4.5 12 4.5C10.067 4.5 8.5 6.067 8.5 8C8.5 9.933 10.067 11.5 12 11.5Z" fill="#4360DF"/>
<path d="M12.9345 16.7839C12.8997 17.2015 12.5288 17.506 12.1099 17.5007C12.0732 17.5002 12.0366 17.5 11.9998 17.5C9.45645 17.5 7.17395 18.6171 5.61624 20.3874C5.31374 20.7312 4.77772 20.7779 4.45392 20.454C4.19319 20.1933 4.16181 19.7784 4.40167 19.4984C6.23574 17.357 8.95932 16 11.9998 16C12.0868 16 12.1735 16.0011 12.2599 16.0033C12.6689 16.0138 12.9685 16.3762 12.9345 16.7839Z" fill="#4360DF"/>
<path d="M21.6708 13.3354C21.8561 12.9649 21.7059 12.5144 21.3354 12.3292C20.9649 12.1439 20.5144 12.2941 20.3292 12.6646L18.1048 17.1134C17.9522 17.4186 17.5453 17.4847 17.304 17.2433L16.5303 16.4697C16.2374 16.1768 15.7626 16.1768 15.4697 16.4697C15.1768 16.7626 15.1768 17.2374 15.4697 17.5303L16.9791 19.0398C17.5824 19.6431 18.5995 19.4781 18.9811 18.7149L21.6708 13.3354Z" fill="#4360DF"/>
</svg>
